svgs/regular/phone-slash.svg

<svg xmlns="http://www.w3.org/2000/svg" viewBox="0 0 640 512"><!--! Font Awesome Pro 6.0.0-alpha3 by @fontawesome - https://fontawesome.com License - https://fontawesome.com/license (Commercial License) --><path d="M630.8 469.1l-153-119.9C539.1 273.8 576 177.9 576 73.39c0-24.56-16.7-45.53-40.61-50.98l-91.25-21.06c-24.53-5.672-49.72 6.984-59.87 30.19l-42.25 98.56c-9.078 21.34-2.891 46.42 15.01 61.05l33.55 27.48c-8.188 14.23-17.69 27.59-28.21 40.08L38.81 5.111C28.34-3.061 13.32-1.249 5.121 9.189C-3.051 19.63-1.233 34.72 9.189 42.89l591.1 463.1C605.6 510.3 610.8 512 615.1 512c7.125 0 14.16-3.161 18.9-9.193C643.1 492.4 641.2 477.3 630.8 469.1zM399.1 288.2c16.52-20.01 31.06-41.66 42.56-65.08c4.906-10 2.281-22.08-6.344-29.14l-48.78-39.97c-1.5-1.234-2-3.297-1.25-5.062l42.14-98.33c.6875-1.562 2.312-2.609 4.047-2.609c.3125 0 .6406 .0313 .9531 .1094l91.34 21.08c2.047 .4687 3.344 2.109 3.344 4.203c0 93.35-33.33 178.8-88.2 246L399.1 288.2zM137.4 464c-2.109 0-3.75-1.281-4.219-3.281l-21.08-91.41c-.4531-1.969 .6562-4.156 2.531-4.969l98.26-42.09c1.734-.8125 3.811-.2813 4.92 1.125l40.02 48.88c7.062 8.625 19.16 11.25 29.15 6.344c14.57-7.152 28.45-15.53 41.78-24.66l-40.09-31.42c-2.113 1.287-4.02 2.877-6.166 4.111l-27.44-33.5C240.5 275.1 215.3 268.9 193.9 278.2l-98.2 42.08c-23.31 10.06-36.06 35.22-30.34 59.88l21.06 91.34C91.89 495.3 112.9 512 137.4 512c102.7 0 196.1-35.72 271.8-95.03l-39.07-30.62C305.1 434.9 224.7 464 137.4 464z"/></svg>

<svg xmlns="http://www.w3.org/2000/svg" viewBox="0 0 640 512"><!-- Font Awesome Pro 6.0.0-alpha2 by @fontawesome - https://fontawesome.com License - https://fontawesome.com/license (Commercial License) --><path d="M630.812 469.109L477.81 349.189C539.05 273.777 575.999 177.893 575.999 73.393C575.999 48.83 559.296 27.861 535.392 22.408L444.144 1.346C419.613 -4.326 394.427 8.33 384.271 31.533L342.023 130.096C332.945 151.439 339.132 176.518 357.037 191.143L390.583 218.627C382.396 232.854 372.896 246.213 362.37 258.711L38.812 5.113C28.343 -3.059 13.312 -1.246 5.109 9.191C-3.063 19.629 -1.235 34.723 9.187 42.895L601.187 506.891C605.593 510.328 610.796 512 615.984 512C623.109 512 630.156 508.844 634.89 502.812C643.062 492.375 641.234 477.281 630.812 469.109ZM399.986 288.193C416.505 268.182 431.05 246.529 442.55 223.111C447.456 213.111 444.831 201.033 436.206 193.971L387.427 154.002C385.927 152.768 385.427 150.705 386.177 148.939L428.316 50.611C429.003 49.049 430.628 48.002 432.363 48.002C432.675 48.002 433.003 48.033 433.316 48.111L524.658 69.189C526.704 69.658 528.001 71.299 528.001 73.393C528.001 166.746 494.673 252.18 439.798 319.398L399.986 288.193ZM137.419 464C135.31 464 133.669 462.719 133.201 460.719L112.122 369.312H112.107C111.654 367.344 112.779 365.156 114.654 364.344L212.917 322.25C214.652 321.438 216.728 321.969 217.837 323.375L257.853 372.25C264.915 380.875 277.009 383.5 287.007 378.594C301.576 371.441 315.453 363.062 328.79 353.932L288.704 322.514C286.591 323.801 284.685 325.391 282.538 326.625L255.103 293.125C240.54 275.062 215.306 268.891 193.902 278.172L95.701 320.25C72.39 330.312 59.64 355.469 65.359 380.125L86.419 471.469C91.888 495.312 112.857 512 137.419 512C240.081 512 334.412 476.283 409.22 416.971L370.15 386.348C305.058 434.887 224.673 464 137.419 464Z"/></svg>
